X:1
T:Ascendit Deus - Carturan
T:James Gibb editions
%%score { 1 | 2 } 3
L:1/8
Q:1/4=96
M:4/4
K:D
V:1 treble nm="Soprano I" snm="S"
V:2 treble 
V:3 treble nm="Alto" snm="A"
V:1
 z2"^Ascendit Deus""^Carlo Carturan\n(1858-1936)""^moderato"!f! A2 B2 c2 | d4"^," d2 d2 | %2
w: A- scen- dit|De- us, a-|
 (d2 c2 B2) d2 | (c3 d) c2 c2 | (f4 d2) e2 | c4 d2 d2 |[M:4/4] g2 g2 d2 e2 | f4"^," f2 F2 | %8
w: scen\- * * dit|De\- * us, a-|scen\- * dit|De- us in|ju- bi- la- ti-|o- ne, a-|
 (B3 c d2) B2 | e4"^," d2 e2 | d6 f2 | (B2 c2)"^," d2 A2 | A2 A2 A2 A2 | =c4 A2 A2 | e2 e2 e2 e2 | %15
w: scen\- * * dit|De- us, a-|scen- dit|De\- * us in|ju- bi- la- ti-|o- ne, in|ju- bi- la- ti-|
 d4"^," d2 d2 | (gf) (ed)"^," c2 c2 | (fe) (dc)"^," B2 e2 | (e2 d4) d2 | (d2 c2) !fermata!d4 || %20
w: o- ne, et|Do\- * mi\- * nus, et|Do\- * mi\- * nus in|vo\- * ce|tu\- * bae.|
 (f2 e2 d2) c2 | B4 c2 dd | (d2 cB c4) | !fermata!d8 |] %24
w: Al\- * * le-|lu- ia, Al- le-|lu\- * * *|ia.|
V:2
 z8 | z2!f! F2 B2 A2 | G4"^," F2 F2 | (A3 B) A2 A2 | A6 B2 | A4 A2 B2 |[M:4/4] B2 B2 B2 B2 | %7
w: |A- scen- dit|De- us, a-|scen\- * dit, a-|scen- dit|De- us in|ju- bi- la- ti-|
 ^A4 A2 z2 | z4 z2 D2 | (G3 A)"^," B2 (cA) | (F3 G A2) A2 | G4"^," F2 E2 | F2 F2 F2 F2 | E4 F2 F2 | %14
w: o- ne,|a-|scen\- * dit, a\- *|scen\- * * dit|De- us in|ju- bi- la- ti-|o- ne, in|
 G2 G2 G2 G2 | B4"^," B2 B2 | B2 B2"^," A2 A2 | A2 A2"^," G2 B2 | (A4 B2) A2 | G4 !fermata!F4 || %20
w: ju- bi- la- ti-|o- ne, et|Do- mi- nus, et|Do- mi- nus in|vo\- * ce|tu- bae.|
 (d2 c2 B2) A2 | G4 G2 FF | (E4 A2 G2) | !fermata!F8 |] %24
w: Al\- * * le-|lu- ia, Al- le-|lu\- * *|ia.|
V:3
 z8 | z2!f! D2 G2 F2 | E4"^," D2 B,2 | F4 F2 F2 | (D4 F2) G2 | (A2 G2) F2 G2 |[M:4/4] E2 E2 G2 G2 | %7
w: |A- scen- dit|De- us, a-|scen- dit, a-|scen\- * dit|De\- * us in|ju- bi- la- ti-|
 F4 F2 z2 | z8 | z4 z2 A,2 | (D3 E F2) D2 | E4 B,2 C2 | D2 D2 D2 D2 | A,4 D2 D2 | =C2 C2 C2 C2 | %15
w: o- ne,||a-|scen\- * * dit|De- us in|ju- bi- la- ti-|o- ne, in|ju- bi- la- ti-|
 G4"^," G2 G2 | E2 G2 (AG) (FE) | D2 F2"^," G2 G2 | (F4 G2) F2 | E4 !fermata!D4 || z8 | %21
w: o- ne, et|Do- mi- nus, * et *|Do- mi- nus in|vo\- * ce|tu- bae.||
 (G2 F2 E2) D2 | A,8 | !fermata!D8 |] %24
w: Al\- * * le-|lu-|ia.|

